X: 20
T: No_28_Song_of_a_Jumping_Dance.krn
N: Derived from No_28_Song_of_a_Jumping_Dance.krn
%%abc-version 2.0
%%abcx-abcm2ps-target-version 5.9.1 (29 Sep 2008)
%%abc-creator hum2abc beta
%%abcx-conversion-date 2019/03/15 08:35:00
%%humdrum-veritas 2252817232
%%humdrum-veritas-data 828788108
%%linebreak <none>
%%barnumbers 0
L: 1/8
M: 3/4
K: F clef=bass
[K:clef=bass][M:3/4]F,/F,3/ F,F,/E,/ D, z | 
F,/F,3/ F,F,/E,/ F, z | 
G,/F,3/ F,F,/E,/ D, z | 
[M:2/4]A,2F,/F,F,/ | 
D,F,F,2 | 
F,F,/F,/ D, z | 
G,2G,F,/F,/ | 
F,G,F,2 | 
F,F,/F,/ D, z ]|:  
G,2F,/F,F,/ | 
F,G,F,2 | 
F,F,/F,/ D, z | 
[M:3/4]G,/G,F,/ G,F,/F,/ F,G, | 
F,/F,3/ F,F,/F,/ D, z :|]  



